;FLAVOR:Marlin
;TIME:1841
;Filament used: 1.66092m
;Layer height: 0.2
;MINX:101.367
;MINY:76.379
;MINZ:0.2
;MAXX:148.609
;MAXY:123.639
;MAXZ:19
;Generated with Cura_SteamEngine main
M82 ;absolute extrusion mode
; -- START GCODE -- 
M140 S70.0 ;start heating bed 
M109 S215.0 ;start heating T0 
M4002 P1 ;set heat program 1 
M1203 A88 D66 F1200 ;set higher accel and decel 
G28 X0 Y0 ;home XY 
G28 Z0 ;home Z
G91 ;set relative movements 
G0 F100 ;speed 100mm/sec 
G0 E20 ;extrude 20mm of filament
G90 ;absolute movements
G0 X8 ;account for Craftbot offset
G92 X0 Y0 ;set new X and Y
; -- end of START GCODE --
G92 E0
G92 E0
G1 F1800 E-0.6
;LAYER_COUNT:95
;LAYER:0
M107
G0 F3600 X103.78 Y81.542 Z0.2
G0 X101.367 Y88.799
;TYPE:SKIRT
G1 F1800 E0
G1 F1500 X101.428 Y87.718 E0.03601
G1 X101.517 Y87.015 E0.05958
G1 X101.672 Y86.14 E0.08914
G1 X101.961 Y85.132 E0.12401
G1 X102.217 Y84.385 E0.15028
G1 X102.438 Y83.884 E0.16849
G1 X102.819 Y83.096 E0.1976
G1 X103.251 Y82.307 E0.22752
G1 X103.78 Y81.542 E0.25845
G1 X104.515 Y80.605 E0.29806
G1 X105.432 Y79.699 E0.34094
G1 X106.031 Y79.183 E0.36723
G1 X106.904 Y78.532 E0.40345
G1 X107.551 Y78.116 E0.42904
G1 X108.236 Y77.723 E0.4553
G1 X109.073 Y77.358 E0.48567
G1 X109.912 Y77.049 E0.51541
G1 X110.912 Y76.755 E0.55008
G1 X111.482 Y76.628 E0.5695
G1 X112.497 Y76.471 E0.60366
G1 X113.159 Y76.413 E0.62577
G1 X114.195 Y76.379 E0.66024
G1 X115.23 Y76.458 E0.69477
G1 X115.891 Y76.545 E0.71694
G1 X117.024 Y76.78 E0.75543
G1 X117.742 Y76.986 E0.78027
G1 X118.837 Y77.392 E0.81911
G1 X119.471 Y77.684 E0.84233
G1 X120.037 Y77.423 E0.86306
G1 X121.125 Y76.999 E0.9019
G1 X122.18 Y76.719 E0.9382
G1 X122.711 Y76.608 E0.95624
G1 X123.696 Y76.467 E0.98934
G1 X124.358 Y76.415 E1.01143
G1 X125.505 Y76.393 E1.04958
G1 X126.642 Y76.505 E1.08758
G1 X127.3 Y76.609 E1.10974
G1 X128.288 Y76.832 E1.14343
G1 X129.017 Y77.047 E1.16871
G1 X129.763 Y77.308 E1.19499
G1 X130.44 Y77.623 E1.21983
G1 X131.203 Y78.024 E1.2485
G1 X131.882 Y78.427 E1.27476
G1 X132.306 Y78.729 E1.29207
G1 X132.834 Y79.132 E1.31416
G1 X133.625 Y79.801 E1.34862
G1 X134.413 Y80.633 E1.38674
G1 X134.84 Y81.142 E1.40883
G1 X135.381 Y81.858 E1.43868
G1 X135.943 Y82.786 E1.47476
G1 X136.317 Y83.482 E1.50104
G1 X136.566 Y84.067 E1.52219
G1 X136.905 Y84.963 E1.55405
G1 X137.147 Y85.715 E1.58033
G1 X137.302 Y86.431 E1.60469
G1 X137.485 Y87.522 E1.64149
G1 X138.342 Y87.657 E1.67034
G1 X139.332 Y87.881 E1.7041
G1 X140.061 Y88.096 E1.72938
G1 X140.807 Y88.357 E1.75567
G1 X141.484 Y88.672 E1.7805
G1 X142.247 Y89.073 E1.80917
G1 X142.926 Y89.476 E1.83544
G1 X143.347 Y89.775 E1.85261
G1 X143.877 Y90.179 E1.87478
G1 X144.71 Y90.914 E1.91172
G1 X145.29 Y91.504 E1.93924
G1 X145.881 Y92.168 E1.96881
G1 X146.42 Y92.916 E1.99947
G1 X147.014 Y93.881 E2.03716
G1 X147.36 Y94.547 E2.06212
G1 X147.823 Y95.633 E2.10139
G1 X148.049 Y96.298 E2.12475
G1 X148.299 Y97.178 E2.15518
G1 X148.494 Y98.339 E2.19433
G1 X148.597 Y99.216 E2.2237
G1 X148.609 Y100.149 E2.25474
G1 X148.548 Y101.23 E2.29075
G1 X148.459 Y101.933 E2.31432
G1 X148.304 Y102.808 E2.34387
G1 X148.015 Y103.816 E2.37875
G1 X147.759 Y104.563 E2.40501
G1 X147.538 Y105.064 E2.42323
G1 X147.157 Y105.852 E2.45234
G1 X146.564 Y106.874 E2.49164
G1 X146.237 Y107.35 E2.51084
G1 X145.557 Y108.204 E2.54715
G1 X145.05 Y108.757 E2.57211
G1 X144.237 Y109.545 E2.60976
G1 X143.395 Y110.19 E2.64504
G1 X142.918 Y110.517 E2.66428
G1 X142.052 Y111.032 E2.69779
G1 X141.46 Y111.334 E2.71989
G1 X140.404 Y111.797 E2.75824
G1 X139.28 Y112.136 E2.79729
G1 X138.595 Y112.298 E2.8207
G1 X137.473 Y112.492 E2.85857
G1 X137.401 Y113.045 E2.87712
G1 X137.206 Y114.077 E2.91205
G1 X136.909 Y115.053 E2.94599
G1 X136.682 Y115.678 E2.9681
G1 X136.254 Y116.647 E3.00333
G1 X135.963 Y117.2 E3.02412
G1 X135.473 Y118.008 E3.05555
G1 X135.167 Y118.45 E3.07343
G1 X134.62 Y119.151 E3.103
G1 X134.265 Y119.556 E3.12091
G1 X133.621 Y120.209 E3.15142
G1 X133.186 Y120.601 E3.17089
G1 X132.413 Y121.214 E3.20371
G1 X131.752 Y121.673 E3.23047
G1 X131.081 Y122.09 E3.25675
G1 X130.344 Y122.449 E3.28402
G1 X129.463 Y122.822 E3.31584
G1 X128.721 Y123.092 E3.3421
G1 X128.015 Y123.275 E3.36636
G1 X127.296 Y123.425 E3.39078
G1 X126.313 Y123.565 E3.42381
G1 X125.65 Y123.617 E3.44593
G1 X124.504 Y123.639 E3.48405
G1 X123.368 Y123.527 E3.52202
G1 X122.71 Y123.423 E3.54418
G1 X121.716 Y123.199 E3.57807
G1 X121.158 Y123.034 E3.59742
G1 X120.167 Y122.683 E3.63239
G1 X119.082 Y122.147 E3.67264
G1 X118.366 Y121.733 E3.70014
G1 X117.391 Y121.067 E3.73942
G1 X116.902 Y120.675 E3.76026
G1 X116.223 Y120.071 E3.79049
G1 X115.423 Y119.19 E3.83007
G1 X114.859 Y118.503 E3.85963
G1 X114.369 Y117.761 E3.88921
G1 X113.864 Y116.877 E3.92307
G1 X113.572 Y116.278 E3.94523
G1 X113.223 Y115.459 E3.97484
G1 X112.902 Y114.428 E4.01076
G1 X112.646 Y113.332 E4.04819
G1 X112.509 Y112.47 E4.07722
G1 X111.993 Y112.405 E4.09452
G1 X111.118 Y112.25 E4.12407
G1 X109.946 Y111.914 E4.16463
G1 X109.198 Y111.658 E4.19092
G1 X108.37 Y111.269 E4.22135
G1 X107.676 Y110.892 E4.24762
G1 X106.732 Y110.287 E4.28491
G1 X106.1 Y109.815 E4.31114
G1 X105.419 Y109.251 E4.34055
G1 X104.621 Y108.44 E4.3784
G1 X104.097 Y107.85 E4.40464
G1 X103.59 Y107.141 E4.43363
G1 X103.124 Y106.404 E4.46263
G1 X102.632 Y105.496 E4.49698
G1 X102.406 Y105.005 E4.51496
G1 X102.02 Y103.986 E4.5512
G1 X101.794 Y103.233 E4.57735
G1 X101.551 Y102.145 E4.61443
G1 X101.465 Y101.57 E4.63377
G1 X101.379 Y100.416 E4.67226
G1 X101.379 Y99.586 E4.69986
G1 X101.425 Y98.681 E4.73
G1 X101.578 Y97.711 E4.76266
G1 X101.799 Y96.688 E4.79747
G1 X102.124 Y95.71 E4.83175
G1 X102.369 Y95.088 E4.85398
G1 X102.647 Y94.505 E4.87547
G1 X102.555 Y94.335 E4.8819
G1 X102.215 Y93.498 E4.91194
G1 X101.926 Y92.648 E4.9418
G1 X101.675 Y91.765 E4.97234
G1 X101.481 Y90.605 E5.01145
G1 X101.379 Y89.725 E5.04092
G1 X101.367 Y88.799 E5.07172
G0 F3600 X101.767 Y88.793
G1 F1500 X101.825 Y87.769 E5.10583
G1 X101.914 Y87.066 E5.1294
G1 X102.141 Y85.958 E5.16702
G1 X102.346 Y85.242 E5.19179
G1 X102.643 Y84.379 E5.22215
G1 X103.179 Y83.27 E5.26311
G1 X103.756 Y82.279 E5.30125
G1 X104.109 Y81.769 E5.32188
G1 X104.815 Y80.87 E5.3599
G1 X105.693 Y80.002 E5.40097
G1 X106.292 Y79.486 E5.42726
G1 X107.12 Y78.869 E5.46161
G1 X107.767 Y78.453 E5.48719
G1 X108.435 Y78.071 E5.51279
G1 X109.212 Y77.733 E5.54097
G1 X110.051 Y77.424 E5.57071
G1 X110.999 Y77.145 E5.60357
G1 X111.569 Y77.018 E5.623
G1 X112.532 Y76.869 E5.65541
G1 X113.194 Y76.811 E5.67751
G1 X114.185 Y76.779 E5.71049
G1 X115.178 Y76.854 E5.74361
G1 X115.839 Y76.941 E5.76578
G1 X116.914 Y77.165 E5.80231
G1 X117.632 Y77.371 E5.82715
G1 X118.671 Y77.755 E5.86399
G1 X119.475 Y78.123 E5.8934
G1 X120.204 Y77.787 E5.9201
G1 X121.248 Y77.38 E5.95737
G1 X122.262 Y77.111 E5.99226
G1 X122.793 Y77 E6.0103
G1 X123.728 Y76.866 E6.04172
G1 X124.39 Y76.814 E6.06381
G1 X125.489 Y76.793 E6.10037
G1 X126.579 Y76.9 E6.13679
G1 X127.237 Y77.004 E6.15895
G1 X128.175 Y77.215 E6.19093
G1 X128.904 Y77.43 E6.21621
G1 X129.63 Y77.686 E6.24181
G1 X130.254 Y77.978 E6.26472
G1 X131.017 Y78.379 E6.29339
G1 X131.787 Y78.836 E6.32318
G1 X132.592 Y79.45 E6.35685
G1 X133.353 Y80.094 E6.39001
G1 X134.106 Y80.89 E6.42645
G1 X134.533 Y81.399 E6.44855
G1 X135.194 Y82.321 E6.48628
G1 X135.601 Y82.993 E6.51241
G1 X135.964 Y83.671 E6.53799
G1 X136.192 Y84.208 E6.55739
G1 X136.531 Y85.104 E6.58926
G1 X136.766 Y85.837 E6.61486
G1 X136.908 Y86.497 E6.63731
G1 X137.059 Y87.396 E6.66763
G1 X137.116 Y87.89 E6.68417
G1 X137.621 Y87.948 E6.70108
G1 X138.28 Y88.052 E6.72327
G1 X139.219 Y88.264 E6.75529
G1 X139.948 Y88.479 E6.78057
G1 X140.674 Y88.735 E6.80617
G1 X141.298 Y89.027 E6.82908
G1 X142.061 Y89.428 E6.85775
G1 X142.829 Y89.884 E6.88746
G1 X143.634 Y90.497 E6.92111
G1 X144.425 Y91.194 E6.95618
G1 X145.005 Y91.784 E6.9837
G1 X145.731 Y92.645 E7.02115
G1 X146.095 Y93.15 E7.04186
G1 X146.659 Y94.065 E7.07761
G1 X147.005 Y94.731 E7.10257
G1 X147.444 Y95.762 E7.13984
G1 X147.67 Y96.427 E7.1632
G1 X147.91 Y97.272 E7.19242
G1 X148.1 Y98.405 E7.23063
G1 X148.201 Y99.535 E7.26836
G1 X148.209 Y100.155 E7.28899
G1 X148.151 Y101.179 E7.3231
G1 X148.062 Y101.882 E7.34667
G1 X147.835 Y102.99 E7.38428
G1 X147.63 Y103.706 E7.40906
G1 X147.333 Y104.569 E7.43941
G1 X146.797 Y105.678 E7.48038
G1 X146.234 Y106.647 E7.51765
G1 X145.907 Y107.123 E7.53686
G1 X145.263 Y107.934 E7.5713
G1 X144.756 Y108.487 E7.59626
G1 X143.976 Y109.24 E7.63232
G1 X143.169 Y109.861 E7.66619
G1 X142.692 Y110.188 E7.68542
G1 X141.871 Y110.676 E7.71719
G1 X141.279 Y110.978 E7.73929
G1 X140.262 Y111.423 E7.77621
G1 X139.188 Y111.746 E7.81351
G1 X138.503 Y111.908 E7.83693
G1 X137.633 Y112.06 E7.8663
G1 X137.12 Y112.112 E7.88345
G1 X137.004 Y112.993 E7.91301
G1 X136.818 Y113.98 E7.94641
G1 X136.533 Y114.916 E7.97895
G1 X136.306 Y115.541 E8.00107
G1 X135.9 Y116.461 E8.03452
G1 X135.609 Y117.014 E8.0553
G1 X135.144 Y117.78 E8.0851
G1 X134.838 Y118.222 E8.10298
G1 X134.319 Y118.888 E8.13107
G1 X133.964 Y119.293 E8.14898
G1 X133.353 Y119.912 E8.17791
G1 X132.918 Y120.304 E8.19738
G1 X132.185 Y120.885 E8.22849
G1 X131.524 Y121.344 E8.25526
G1 X130.87 Y121.75 E8.28086
G1 X130.188 Y122.08 E8.30606
G1 X129.307 Y122.453 E8.33788
G1 X128.584 Y122.716 E8.36347
G1 X127.933 Y122.883 E8.38582
G1 X127.214 Y123.033 E8.41025
G1 X126.282 Y123.166 E8.44157
G1 X125.619 Y123.218 E8.46369
G1 X124.52 Y123.239 E8.50024
G1 X123.431 Y123.132 E8.53664
G1 X122.773 Y123.028 E8.5588
G1 X121.83 Y122.815 E8.59095
G1 X121.272 Y122.65 E8.6103
G1 X120.321 Y122.314 E8.64385
G1 X119.282 Y121.801 E8.68239
G1 X118.566 Y121.387 E8.7099
G1 X117.641 Y120.755 E8.74716
G1 X117.152 Y120.363 E8.76801
G1 X116.503 Y119.784 E8.79693
G1 X115.719 Y118.921 E8.83571
G1 X115.024 Y118.027 E8.87338
G1 X114.702 Y117.54 E8.89279
G1 X114.223 Y116.702 E8.9249
G1 X113.931 Y116.103 E8.94706
G1 X113.517 Y115.058 E8.98445
G1 X113.284 Y114.309 E9.01054
G1 X113.041 Y113.27 E9.04603
G1 X112.95 Y112.696 E9.06536
G1 X112.902 Y112.117 E9.08468
G1 X112.044 Y112.008 E9.11345
G1 X110.936 Y111.781 E9.15106
G1 X110.056 Y111.529 E9.18151
G1 X109.328 Y111.279 E9.20711
G1 X108.561 Y110.918 E9.2353
G1 X107.867 Y110.541 E9.26157
G1 X106.971 Y109.967 E9.29696
G1 X106.339 Y109.495 E9.3232
G1 X105.49 Y108.754 E9.36068
G1 X104.906 Y108.16 E9.38839
G1 X104.396 Y107.584 E9.41398
G1 X103.928 Y106.927 E9.4408
G1 X103.462 Y106.19 E9.46981
G1 X102.995 Y105.329 E9.50238
G1 X102.769 Y104.838 E9.52036
G1 X102.403 Y103.871 E9.55475
G1 X102.177 Y103.118 E9.5809
G1 X101.946 Y102.086 E9.61607
G1 X101.86 Y101.511 E9.63541
G1 X101.779 Y100.416 E9.67193
G1 X101.779 Y99.586 E9.69954
G1 X101.824 Y98.715 E9.72854
G1 X101.973 Y97.773 E9.76026
G1 X102.185 Y96.792 E9.79365
G1 X102.496 Y95.857 E9.82642
G1 X102.741 Y95.235 E9.84865
G1 X103.095 Y94.493 E9.876
G1 X102.908 Y94.145 E9.88914
G1 X102.594 Y93.369 E9.91698
G1 X102.305 Y92.519 E9.94684
G1 X102.064 Y91.671 E9.97616
G1 X101.875 Y90.539 E10.01433
G1 X101.775 Y89.413 E10.05193
G1 X101.767 Y88.793 E10.07256
G0 F3600 X102.167 Y88.788
G1 F1500 X102.221 Y87.819 E10.10483
G1 X102.31 Y87.116 E10.1284
G1 X102.525 Y86.068 E10.16399
G1 X102.73 Y85.352 E10.18876
G1 X103.013 Y84.532 E10.21761
G1 X103.539 Y83.444 E10.2578
G1 X104.085 Y82.507 E10.29387
G1 X104.438 Y81.997 E10.3145
G1 X105.113 Y81.136 E10.35089
G1 X105.954 Y80.305 E10.39021
G1 X106.553 Y79.789 E10.41651
G1 X107.336 Y79.205 E10.449
G1 X107.983 Y78.789 E10.47458
G1 X108.633 Y78.419 E10.49946
G1 X109.35 Y78.108 E10.52545
G1 X110.189 Y77.799 E10.55519
G1 X111.086 Y77.536 E10.58628
G1 X111.656 Y77.409 E10.6057
G1 X112.567 Y77.268 E10.63636
G1 X113.229 Y77.21 E10.65847
G1 X114.178 Y77.179 E10.69005
G1 X115.125 Y77.251 E10.72164
G1 X115.786 Y77.338 E10.74381
G1 X116.803 Y77.549 E10.77836
G1 X117.521 Y77.755 E10.8032
G1 X118.504 Y78.119 E10.83806
G1 X119.107 Y78.395 E10.86012
G1 X119.482 Y78.591 E10.87419
G1 X119.807 Y78.41 E10.88657
G1 X120.371 Y78.15 E10.90722
G1 X121.371 Y77.759 E10.94294
G1 X122.344 Y77.502 E10.97641
G1 X122.875 Y77.391 E10.99445
G1 X123.759 Y77.264 E11.02415
G1 X124.421 Y77.212 E11.04624
G1 X125.475 Y77.192 E11.0813
G1 X126.517 Y77.295 E11.11613
G1 X127.175 Y77.399 E11.13829
G1 X128.062 Y77.599 E11.16853
G1 X128.791 Y77.814 E11.19381
G1 X129.496 Y78.064 E11.21869
G1 X130.068 Y78.332 E11.2397
G1 X130.831 Y78.733 E11.26836
G1 X131.573 Y79.175 E11.29709
G1 X132.349 Y79.768 E11.32957
G1 X133.078 Y80.385 E11.36134
G1 X133.8 Y81.147 E11.39625
G1 X134.227 Y81.656 E11.41835
G1 X134.851 Y82.529 E11.45404
G1 X135.258 Y83.201 E11.48017
G1 X135.611 Y83.86 E11.50504
G1 X135.818 Y84.35 E11.52273
G1 X136.157 Y85.246 E11.55459
G1 X136.384 Y85.959 E11.57948
G1 X136.513 Y86.563 E11.60002
G1 X136.664 Y87.462 E11.63034
G1 X136.736 Y88.273 E11.65742
G1 X137.259 Y88.297 E11.67483
G1 X138.217 Y88.448 E11.70709
G1 X139.106 Y88.648 E11.7374
G1 X139.835 Y88.863 E11.76268
G1 X140.54 Y89.113 E11.78756
G1 X141.112 Y89.381 E11.80857
G1 X141.875 Y89.782 E11.83723
G1 X142.619 Y90.226 E11.86605
G1 X143.392 Y90.815 E11.89837
G1 X144.14 Y91.475 E11.93155
G1 X144.72 Y92.065 E11.95907
G1 X145.407 Y92.879 E11.9945
G1 X145.771 Y93.384 E12.0152
G1 X146.304 Y94.25 E12.04902
G1 X146.65 Y94.916 E12.07399
G1 X147.066 Y95.891 E12.10924
G1 X147.292 Y96.556 E12.1326
G1 X147.52 Y97.368 E12.16066
G1 X147.705 Y98.471 E12.19785
G1 X147.801 Y99.54 E12.23355
G1 X147.809 Y100.16 E12.25418
G1 X147.755 Y101.129 E12.28645
G1 X147.666 Y101.832 E12.31002
G1 X147.451 Y102.88 E12.34561
G1 X147.246 Y103.596 E12.37038
G1 X146.963 Y104.416 E12.39923
G1 X146.437 Y105.504 E12.43942
G1 X145.905 Y106.421 E12.47468
G1 X145.578 Y106.897 E12.49389
G1 X144.968 Y107.663 E12.52646
G1 X144.461 Y108.216 E12.55141
G1 X143.717 Y108.937 E12.58587
G1 X142.943 Y109.531 E12.61832
G1 X142.466 Y109.858 E12.63756
G1 X141.689 Y110.32 E12.66762
G1 X141.097 Y110.622 E12.68973
G1 X140.124 Y111.047 E12.72504
G1 X139.096 Y111.357 E12.76075
G1 X138.411 Y111.519 E12.78417
G1 X137.588 Y111.663 E12.81196
G1 X136.725 Y111.737 E12.84076
G1 X136.694 Y112.279 E12.85882
G1 X136.607 Y112.941 E12.88103
G1 X136.429 Y113.884 E12.91295
G1 X136.157 Y114.78 E12.94409
G1 X135.93 Y115.405 E12.96621
G1 X135.546 Y116.275 E12.99784
G1 X135.255 Y116.828 E13.01862
G1 X134.815 Y117.552 E13.0468
G1 X134.509 Y117.994 E13.06468
G1 X134.018 Y118.624 E13.09125
G1 X133.663 Y119.029 E13.10916
G1 X133.085 Y119.615 E13.13653
G1 X132.65 Y120.007 E13.15601
G1 X131.957 Y120.557 E13.18544
G1 X131.296 Y121.016 E13.2122
G1 X130.659 Y121.409 E13.2371
G1 X130.032 Y121.712 E13.26026
G1 X129.151 Y122.085 E13.29208
G1 X128.448 Y122.339 E13.31694
G1 X127.852 Y122.491 E13.3374
G1 X127.133 Y122.641 E13.36183
G1 X126.25 Y122.768 E13.3915
G1 X125.587 Y122.82 E13.41362
G1 X124.535 Y122.84 E13.44861
G1 X123.493 Y122.737 E13.48344
G1 X122.835 Y122.633 E13.50559
G1 X121.943 Y122.432 E13.53601
G1 X121.385 Y122.267 E13.55536
G1 X120.474 Y121.945 E13.5875
G1 X119.482 Y121.455 E13.6243
G1 X118.766 Y121.041 E13.65181
G1 X117.892 Y120.443 E13.68703
G1 X117.403 Y120.051 E13.70787
G1 X116.599 Y119.295 E13.74458
G1 X116.015 Y118.652 E13.77347
G1 X115.358 Y117.807 E13.80907
G1 X115.036 Y117.32 E13.82849
G1 X114.583 Y116.526 E13.85889
G1 X114.291 Y115.927 E13.88106
G1 X113.899 Y114.939 E13.91641
G1 X113.666 Y114.19 E13.9425
G1 X113.436 Y113.207 E13.97608
G1 X113.345 Y112.633 E13.99541
G1 X113.27 Y111.727 E14.02564
G1 X112.797 Y111.701 E14.0414
G1 X112.094 Y111.612 E14.06497
G1 X111.046 Y111.397 E14.10055
G1 X110.166 Y111.145 E14.131
G1 X109.459 Y110.9 E14.15588
G1 X108.752 Y110.566 E14.18189
G1 X108.058 Y110.189 E14.20816
G1 X107.21 Y109.647 E14.24163
G1 X106.578 Y109.175 E14.26787
G1 X105.775 Y108.474 E14.30332
G1 X105.191 Y107.88 E14.33103
G1 X104.696 Y107.319 E14.35591
G1 X104.266 Y106.713 E14.38062
G1 X103.8 Y105.976 E14.40963
G1 X103.358 Y105.162 E14.44043
G1 X103.132 Y104.671 E14.45841
G1 X102.786 Y103.756 E14.49095
G1 X102.56 Y103.003 E14.5171
G1 X102.342 Y102.026 E14.55039
G1 X102.256 Y101.451 E14.56973
G1 X102.179 Y100.416 E14.60425
G1 X102.179 Y99.586 E14.63185
G1 X102.265 Y98.495 E14.66825
G1 X102.369 Y97.836 E14.69044
G1 X102.569 Y96.9 E14.72228
G1 X102.868 Y96.004 E14.75369
G1 X103.113 Y95.382 E14.77593
